!!!COM: Beethoven, Ludwig van
!!!CDT: 1770///-1827///
!!!OTL: Piano Sonata no. 15 in D major
!!!OTP: pastoral
!!!OPS: 28
!!!OMV: 2
!!!OMD: Andante
**kern	**kern	**dynam
*staff2	*staff1	*staff1
*Ipiano	*Ipiano	*Ipiano
*>[A,A1,A,A2,B,B1,B,B2,C,C1,C,C2,D,D1,D,D2,E]	*>[A,A1,A,A2,B,B1,B,B2,C,C1,C,C2,D,D1,D,D2,E]	*>[A,A1,A,A2,B,B1,B,B2,C,C1,C,C2,D,D1,D,D2,E]
*>norep[A,A2,B,B2,C,C2,D,D2,E]	*>norep[A,A2,B,B2,C,C2,D,D2,E]	*>norep[A,A2,B,B2,C,C2,D,D2,E]
*>A	*>A	*>A
*clefF4	*clefG2	*
*k[b-]	*k[b-]	*
*d:	*d:	*
*M2/4	*M2/4	*
*MM60	*MM60	*
=1-	=1-	=1-
16DD`LL<	4F< 4A< (>4d	p
16D`	.	.
16AA`	.	.
16D`JJ	.	.
16CC#`LL<	4A 4e 4a)	.
16C#`	.	.
16AA`	.	.
16C#`JJ	.	.
=2	=2	=2
*	*^	*
16DD`LL<	(<8gL	4A 4d	.
16D`	.	.	.
16AA`	16.fL	.	.
16D`JJ	.	.	.
.	32eJJk	.	.
16DD`LL<	8dL)	4ryy	.
16D`	.	.	.
16FF`	(8d 8a 8ddJ	.	.
16F`JJ	.	.	.
*	*v	*v	*
=3	=3	=3
!LO:TX:i:t=sempre staccato	!	!
16BB-`yLL	8e 8g 8ddL	<
16B-`y	.	.
16AA`y	8f 8a 8dd	.
16A`yJJ	.	.
16GG`yLL<	8e 8b- 8dd	.
16G`y	.	.
16GG#`y	8f) 8bn 8ddJ	.
16G#`yJJ	.	.
=4	=4	=4
16AA`yLL	4f [4a ((>4dd	p
16A`y	.	.
16G#`y	.	.
16A`yJJ	.	.
16AA`yLL	8e 8a] 8cc#))	.
16A`y	.	.
16GGn`y	8r	.
16Gn`yJJ	.	.
=5	=5	=5
*	*^	*
16FFLL	(4f	4A 4cn	.
16F	.	.	.
16C	.	.	.
16FJJ	.	.	.
16EELL	4ccn)	4c 4g	.
16E	.	.	.
16C	.	.	.
16EJJ	.	.	.
=6	=6	=6	=6
16FFLL	(8b-L	4.c 4.f	.
16F	.	.	.
16BB-	16.aL	.	.
16FJJ	.	.	.
.	32g#JJk	.	.
16FFLL	8aL	.	.
16F	.	.	.
16DD	8bnJ)	8f 8a	.
16DJJ	.	.	.
=7	=7	=7	=7
16EELL	4a (4cc	4e	<
16E	.	.	.
16AA	.	.	.
16EJJ	.	.	.
16EELL	4e 4g#)	4d	.
16E	.	.	.
16BBn	.	.	.
16EJJ	.	.	.
*	*v	*v	*
=8	=8	=8
*>A1	*>A1	*>A1
(16AAALL	8c 8e 8a	p
16AA	.	.
16BBB-X	(8B-XL	<
16BB-XJJ	.	.
16AAALL	8A	.
16AA	.	.
16CC#	8c#J)	.
16C#JJ)	.	.
=9:|!	=9:|!	=9:|!
*>A2	*>A2	*>A2
(16AAALL	8c 8e 8a	p
16AA	.	.
16AAA-	(8B-XL	<
16BB-XJJ	.	.
16AAA-LL	8A	.
16AA	.	.
16GGG#	8G#J)	.
16GG#JJ)	.	.
=10!|:	=10!|:	=10!|:
*>B	*>B	*>B
16AAA 16AALL>	4cc# (4ee	p
16A	.	.
16A	.	.
16AJJ	.	.
16ALL	8..ee 8..ggL	.
16A	.	.
16A	.	.
16AJJ	.	.
.	32dd 32ffJkk)	.
=11	=11	=11
*^	*^	*
8r	16ALL	4.ryy	(8dd 8ff	<
.	16A	.	.	.
(4g	16A	.	4b- 4cc# 4ee	[ >
.	16AJJ	.	.	.
.	16ALL	.	.	.
.	16A	.	.	.
8g#)	16A	16.ffLL	8bn	]
.	16AJJ	.	.	.
.	.	32ddJJk)	.	.
*v	*v	*	*	*
*	*v	*v	*
=12	=12	=12
16ALL	4a [4cc#	<
16A	.	.
16A	.	.
16AJJ	.	.
16ALL	16a (16cc#LL]	.
16A	16cc# 16ee	.
16A	16.ee 16.gg	.
16AJJ	.	.
.	32dd 32ffJJk)	.
=13	=13	=13
*^	*^	*
8r	16ALL	4.ryy	8dd (8ff	p <
.	16A	.	.	.
(4g	16A	.	4b-X 4cc# 4ee	[ >
.	16AJJ	.	.	.
.	16ALL	.	.	.
.	16A	.	.	.
8g#)	16A	16.ffLL	8bn	]
.	16AJJ	.	.	.
.	.	32ddJJk)	.	.
=14	=14	=14	=14	=14
8e	16ALL	(8cc#	8a	.
.	16A	.	.	.
(4gn	16A	4cc# 4ee	4b-X	sf
.	16AJJ	.	.	.
.	16ALL	.	.	.
.	16A	.	.	.
8g#)	16A	16.ffLL	8bn	.
.	16AJJ	.	.	.
.	.	32ddJJk)	.	.
=15	=15	=15	=15	=15
16e	16ALL	(16.cc#LL	16a	.
16r	16A	.	16r	.
.	.	32eeJJk	.	.
(8g#L	16A	16.ffLL	(8bnL	sf
.	16AJJ	.	.	.
.	.	32ddJJk	.	.
16eJk)	16ALL	16.cc#LL	16aJk)	.
16r	16A	.	16r	.
.	.	32eeJJk	.	.
(8g#	16A	16.ffLL	(8b	sf
.	16AJJ	.	.	.
.	.	32ddJJk)	.	.
=16	=16	=16	=16	=16
8e)	8A	(4cc#	8a)	p
8r	8r	.	8re	.
4r	4r	4ee	4re	.
*v	*v	*	*	*
*	*v	*v	*
=17	=17	=17
2r	4.gg	.
.	(8c# (>8cc#)	.
=18	=18	=18
16DD`LL	(4d 4dd))	.
16D`	.	.
16AA`	.	.
16D`JJ	.	.
16CC#`LL	4a 4aa)	.
16C#`	.	.
16AA`	.	.
16C#`JJ	.	.
=19	=19	=19
16DD`LL	(8g 8ggL>	.
16D`	.	.
16AA`	16.f 16.ffL	.
16D`JJ	.	.
.	32e 32eeJJk	.
16DD`LL	8d 8ddL>	.
16D`	.	.
16BBBn`	8g) 8ggJ	f
16BBn`JJ	.	.
=20	=20	=20
!LO:TX:i:t=sempre staccato	!	!
16CCn`yLL	(8f 8ffL	.
16Cn`y	.	.
16GG`y	16.e 16.eeL	.
16C`yJJ	.	.
.	32d 32ddJJk	.
16CC`yLL	8cn 8ccnL>	.
16C`y	.	.
16CC#`y	8a) 8aaJ	sf
16C#`yJJ	.	.
=21	=21	=21
16DD`yLL	(8g 8ggL>	<
16D`y	.	.
16AA`y	16.f 16.ffL	.
16D`yJJ	.	.
.	32e 32eeJJk	.
16DD`yLL	8d) 8dd	.
16D`y	.	.
16FF#`y	16.dd (16.dddLL	.
16F#`yJJ	.	.
.	32cc 32cccJJk)	.
=22	=22	=22
16GG`yLL	16cc (16cccLL	f
16G`y	16b- 16bb-	.
16BB-`y	16a 16aa	.
16B-`yJJ	16g# 16gg#JJ)	.
16AA`yLL<	(16g# 16gg#LK	.
16A`y	8a) 8aa	.
16AAA`y	.	.
16AA`yJJ	16En< 16c#Jk	.
=23	=23	=23
*>B1	*>B1	*>B1
16DDLL<	4G< 4c# (>4e	p
16D	.	.
16AA	.	.
16DJJ	.	.
16DDLL<	8F< 8A< 8d)	.
16A'	.	.
16F'	8r	.
16D'JJ	.	.
=24:|!	=24:|!	=24:|!
*>B2	*>B2	*>B2
16DDLL<	4G< 4c# (>4e	p
16D	.	.
16AA	.	.
16DJJ	.	.
8DD\	8F< 8A< 8d)	.
8rCC	16r	.
.	16A	.
=25|!:	=25!|:	=25!|:
*>C	*>C	*>C
*k[f#c#]	*k[f#c#]	*k[f#c#]
*D:	*D:	*D:
16.D' 16.A'LL	16.d' 16.f#'LL	p
32D' 32A'Jk	32d' 32f#'k	.
8D' 8A'J	16d' 16f#'JJ	.
.	32r	.
.	(32gg#	.
4r	24aaLL	.
.	24ff#')	.
.	24dd'JJ	.
.	24a'LL	.
.	24gn'	.
.	24f#'JJ	.
=26	=26	=26
16.GG' 16.G'LL<	16.B' 16.d' 16.e'LL	.
32GG' 32G'Jk	32B' 32d' 32e'k	.
8GG' 8G'J	16B' 16d' 16e'JJ	.
.	32r	.
.	(32aa#	.
4r	24bbLL)	.
.	24gg'	.
.	24ee'JJ	.
.	24b'LL	.
.	24g'	.
.	24e'JJ	.
=27	=27	=27
16.AA' 16.E' 16.G'LL	16.c#'LL	.
32AA' 32E' 32G'Jk	32c#'k	.
8AA' 8E' 8G'J	16c#'JJ	.
.	32r	.
.	(32ff#	.
4r	24ggLL)	.
.	24ee'	.
.	24cc#'JJ	.
*	*Xtuplet	*
.	24g'LL	.
.	24e'	.
.	24c#'JJ	.
=28	=28	=28
8DD' 8D'L	24d'LL	.
.	24A'	.
.	24f#'JJ	.
8AAA' 8AA'	24c#' 24e'LL	.
.	24A'	.
.	24g'JJ	.
8DD' 8D'J	24d' 24f#'LL	.
.	24dd'	>
.	24cc#'JJ	.
8r	24b'LL	.
.	24a'	.
.	24g'JJ	]
=29	=29	=29
16.D' 16.A'LL	16.d' 16.f#'LL	.
32D' 32A'Jk	32d' 32f#'k	.
8D' 8A'J	16d' 16f#'JJ	.
.	32r	.
.	(32gg#	.
4r	24aaLL)	.
.	24ff#'	.
.	24dd'JJ	.
.	24a'LL	.
.	24gn'	.
.	24f#'JJ	.
=30	=30	=30
16.GG#' 16.E'LL	16.B' 16.d' 16.e'LL	f
32GG#' 32E'Jk	32B' 32d' 32e'k	.
8GG#' 8E'J	16B' 16d' 16e'JJ	.
.	32r	.
.	(32ccc#	>
4r	24dddLL)	.
.	24bb'	.
.	24gg#'JJ	.
.	24ee'LL	.
.	24dd'	.
.	24b'JJ	.
=31	=31	=31
8A 8e	24cc#'LL	p
.	(24aa	.
.	24gg#JJ)	.
8r	24aa'LL	.
.	24ee'	.
.	24cc#'JJ	.
8E 8d	24b'LL	.
.	(24ee	.
.	24dd#JJ)	.
8r	24ee'LL	.
.	24ddn'	.
.	24b'JJ	.
=32	=32	=32
*>C1	*>C1	*>C1
8A 8c#L	24a'LL	.
.	24e'	.
.	24cc#'JJ	.
8A 8c#J	24a'LL	.
.	24e'	.
.	24cc#'JJ	.
8A 8c#	24a'LL	p
.	(24ee	>
.	24cc#JJ)	.
8r	24a'LL	.
.	24b'	.
.	24gn'JJ	]
=33:|!	=33:|!	=33:|!
*>C2	*>C2	*>C2
8A 8c#L	24a'LL	.
.	24e'	.
.	24cc#'JJ	.
8A 8c#J	24a'LL	.
.	24e'	.
.	24cc#'JJ	.
24A' 24c#'LL	8a	>
(24e	.	.
24c#JJ)	.	.
24A'LL	8r	.
24B'	.	.
24Gn'JJ	.	]
=34!|:	=34!|:	=34!|:
*>D	*>D	*>D
16.FF#' 16.D' 16.F#'LL<	16.A' 16.cn' 16.d'LL	f
32FF#' 32D' 32F#'Jk	32A' 32c' 32d'k	.
8FF#' 8D' 8F#'J	16A' 16c' 16d'JJ	.
.	32r	.
.	(32bb	p
4r	24cccnLL)	.
.	24aa'	.
.	24ff#'JJ	.
.	24dd'LL	.
.	24ccn'	.
.	24a'JJ	.
=35	=35	=35
16.GG' 16.D' 16.G'LL<	16.B' 16.d'LL	f
32GG' 32D' 32G'Jk	32B' 32d'k	.
8GG' 8D' 8G'J	16B' 16d'JJ	.
.	32r	.
.	(32ccc#	p
8r	(24dddLL)	.
.	24bb	.
.	24ggJJ	.
*clefG2	*	*
(8f#	24dddLL	.
.	24cccn	.
.	24aaJJ	.
=36	=36	=36
8gL	24cccnLL	<
.	24bb	.
.	24ggJJ	.
8d#	24bbLL	.
.	24aa	.
.	24ff#JJ	.
8e	24aaLL	.
.	24gg	.
.	24eeJJ	.
8f#J	24ggLL	.
.	24ff#	.
.	24dd#JJ	[
=37	=37	=37
8gL	24ff#LL	>
.	24ee	.
.	24bJJ	.
8g#	24eeLL	.
.	24ddn	.
.	24bJJ)	.
8aJ)	(24ddLL	.
.	24cc#X)	.
.	24b'JJ	.
8r	24a'LL	.
.	24b'	.
.	24gn'JJ	]
*clefF4	*	*
=38	=38	=38
16.D' 16.A'LL	16.d' 16.f#'LL	p
32D' 32A'Jk	32d' 32f#'k	.
8D' 8A'J	16d' 16f#'JJ	.
.	32r	.
.	(32gg#	.
4r	24aaLL)	.
.	24ff#'	.
.	24dd'JJ	.
.	24a'LL	.
.	24gn'	.
.	24f#'JJ	.
=39	=39	=39
16.GG' 16.G'LL<	16.B' 16.d' 16.e'LL	.
32GG' 32G'Jk	32B' 32d' 32e'k	.
8GG' 8G'J	16B' 16d' 16e'JJ	.
.	32r	.
.	(32ccc#	.
4r	24dddLL)	.
.	24bb'	.
.	24aa'JJ	.
.	24gg'LL	.
.	24ff#'	.
.	24ee'JJ	.
*clefG2	*	*
=40	=40	=40
8A 8d 8f#	24dd'LL	.
.	(24aa	.
.	24gg#JJ	.
8r	24aa'LL)	.
.	24ff#'	.
.	24dd'JJ	.
8A 8e 8g	24cc#LL	.
.	(24ggn	.
.	24ff#JJ	.
8r	24gg'LL)	.
.	24ee'	.
.	24cc#'JJ	.
=41	=41	=41
*>D1	*>D1	*>D1
8d 8f#L	24dd'LL	.
.	24a'	.
.	24ff#'JJ	.
8d 8f#J	24dd'LL	.
.	24a'	.
.	24ff#'JJ	.
*Xtuplet	*	*
24d 24f#	8dd'	.
24b'LL	.	.
24an'JJ	.	.
24g'LL	8r	.
24f#'	.	.
24e'JJ	.	.
=42:|!	=42:|!	=42:|!
*>D2	*>D2	*>D2
8d 8f#L	24dd'LL	.
.	24a'	.
.	24ff#'JJ	.
8d 8f#	24dd'LL	.
.	24a'	.
.	24ff#'JJ	.
8d 8f#J	8dd'	.
8r	8A	.
*clefF4	*	*
=43	=43	=43
*k[b-]	*k[b-]	*k[b-]
*d:	*d:	*d:
*>E	*>E	*>E
16DD`LL<	4F< 4A< (>4d	.
16D`	.	.
16AA	.	.
16D`JJ	.	.
16EE`LL<	4A< 4e 4a)	.
16C#`	.	.
16AA`	.	.
16C#`JJ	.	.
=44	=44	=44
*	*^	*
16DD`LL	(8gL	4A 4d	.
16D`	.	.	.
16AA`	16.fL	.	.
16D`JJ	.	.	.
.	32eJJk	.	.
16DD`LL	8dL)	4ryy	.
16D	.	.	.
16FF`	(8d 8a 8ddJ	.	.
16F`JJ	.	.	.
*	*v	*v	*
=45	=45	=45
!LO:TX:i:t=sempre staccato	!	!
16BB-`LL	8e 8g 8ddL	.
16B-`	.	<
16AA`	8f 8a 8ddJ	.
16A`JJ	.	.
16GG`LL<	8e 8b- 8ddL	.
16G`	.	.
16GG#`	8f) 8bn 8ddJ	.
16G#`JJ	.	.
=46	=46	=46
16AALL	4f [4a ((>4dd	p
16A	.	.
16G#	.	.
16AJJ	.	.
16AALL	8e 8a] 8cc#))	.
16A	.	.
16GGn	8r	.
16GnJJ	.	.
=47	=47	=47
16FFLL	(4A 4cn 4f	.
16F	.	.
16C	.	.
16FJJ	.	.
16EELL	4c) 4g 4ccn	.
16E	.	.
16C	.	.
16EJJ	.	.
=48	=48	=48
*	*^	*
16FFLL	(8b-L	4.c 4.f	.
16F	.	.	.
16C	16.aL	.	.
16FJJ	.	.	.
.	32g#JJk	.	.
16FFLL	8aL	.	.
16F	.	.	.
16DD	8bnJ	8f 8a)	.
16DJJ	.	.	.
*	*v	*v	*
=49	=49	=49
16EELL	4e 4a (>4cc	<
16E	.	.
16AA	.	.
16EJJ	.	.
16EELL	4d 4e 4g#)	.
16E	.	.
16BBn	.	.
16EJJ	.	.
=50	=50	=50
(16AAALL	8c 8e 8a	p
16AA	.	.
16BBB-X	(8B-L	<
16BB-XJJ	.	.
16AAALL	8A	.
16AA	.	.
16CC#	8c#J)	.
16C#JJ)	.	.
=51	=51	=51
16DD`LL	(32dLLL	p
.	32f	.
16D`	32a	.
.	32cc#JJJ	.
16AA`	32ddLLL	.
.	32ee	.
16D`JJ	32ff	.
.	32ggJJJ	.
16CC#`LL	32gg#LLL	.
.	32aa	.
16C#	32gg#	.
.	32aaJJJ	.
16AA`	32gg#LLL	.
.	32aa	.
16C#`JJ	32bb-	.
.	32aaJJJ)	.
=52	=52	=52
*	*^	*
!LO:TX:i:t=staccato	!	!	!
16DD`yLL	4.ryy	32ggnLLL	.
.	.	32ff	.
16D`y	.	32ee	.
.	.	32ddJJJ	.
16AA`y	.	32cc#LLL	.
.	.	32dd	.
16D`yJJ	.	32cc#	.
.	.	32ddJJJ	.
16DD`yLL	.	32cc#LLL	.
.	.	32dd	.
16D`y	.	32ee	.
.	.	32ddJJJ	.
16FF`y	32aLLL	(8a	.
.	32dd	.	.
16F`yJJ	32ee	.	.
.	32ddJJJ	.	.
=53	=53	=53	=53
16BB-`yLL	32gLLL	8eL	<
.	32dd	.	.
16B-`y	32ee	.	.
.	32ddJJJ	.	.
16AA`y	32aLLL	8fJ	.
.	32dd	.	.
16A`yJJ	32ee	.	.
.	32ddJJJ	.	.
16GG`yLL<	32b-LLL	8eL	.
.	32dd	.	.
16G`y	32ee	.	.
.	32ddJJJ	.	.
16GG#`y	32bnLLL	8fJ)	.
.	32dd	.	.
16G#`yJJ	32ee	.	.
.	32ddJJJ	.	.
=54	=54	=54	=54
16AA`yLL	32aLLL	(4f	.
.	32cc#	.	.
16A`y	32dd	.	.
.	32cc#JJJ	.	.
16D`y	32ddLLL	.	.
.	32ff	.	.
16A`yJJ	32ee	.	.
.	32ddJJJ	.	.
16AA`yLL	32cc#LLL	8e)	.
.	32ccn	.	.
16A`y	32dd	.	.
.	32ccJJJ	.	.
16GG`y	32bnLLL	8r	.
.	32cc	.	.
16G`yJJ	32dd	.	.
.	32eeJJJ	.	.
*	*v	*v	*
=55	=55	=55
(16FFLL	32ffLLL>	.
.	32f	.
16F	32a	.
.	32ccJJJ	.
16C	32ffLLL	.
.	32gg	.
16FJJ)	32aa	.
.	32bb-JJJ	.
(16EELL	32bbnLLL	.
.	32ccc	.
16E	32bb	.
.	32cccJJJ	.
16C	32bbLLL	.
.	32ccc	.
16EJJ)	32ddd	.
.	32cccJJJ	.
=56	=56	=56
(16FFLL	32bb-XLLL	.
.	32aa	.
16F	32gg#	.
.	32aaJJJ	.
16C	32gg#LLL	.
.	32aa	.
16FJJ)	32bb-	.
.	32aaJJJ	.
(16FFLL	32a'LLL	.
.	(32aa	.
16F	32gg#	.
.	32aaJJJ)	.
16DD	32bn'LLL	.
.	(32bbn	.
16DJJ)	32aa	.
.	32bbJJJ)	.
=57	=57	=57
(16EELL	32cc'LLL	.
.	(32ccc	.
16E	32bbn	.
.	32cccJJJ)	<
16AA	(32eeeLLL	.
.	32ccc	.
16EJJ)	32bb	.
.	32aaJJJ	.
(16EELL	32gg#LLL	.
.	32ff	.
16E	32ee	.
.	32ddJJJ	.
16BBn	32ccLLL<	.
.	32bn	.
16EJJ)	32a	.
.	32g#JJJ)	.
=58	=58	=58
(16AAALL>	16a'LL	.
16AA	16A'JJ	.
16BBB-X\	16r	.
16BB-XJJ	16B-X'LL	.
16AAALL	16r	.
16AA	16A'	.
16GGG#	16r	.
16GG#JJ)	16G#'JJ	.
=59	=59	=59
16AAA 16AALL>	4cc# (4ee	p
16A	.	.
16A	.	.
16AJJ	.	.
16ALL	8..ee 8..ggL	.
16A	.	.
16A	.	.
16AJJ	.	.
.	32dd 32ffJkk)	.
=60	=60	=60
*^	*^	*
8r	16ALL	4.ryy	8dd (8ff	<
.	16A	.	.	.
(4g	16A	.	4b- 4cc# 4ee	.
.	16AJJ	.	.	.
.	16ALL	.	.	.
.	16A	.	.	.
8g#)	16A	16.ffLL	8bn	.
.	16AJJ	.	.	.
.	.	32ddJJk)	.	.
*v	*v	*	*	*
*	*v	*v	*
=61	=61	=61
16ALL	[4a [4cc#	p
16A	.	.
16A	.	.
16AJJ	.	.
16ALL	16a] (16cc#LL]	<
16A	16cc# 16ee	.
16A	16.ee 16.gg	.
16AJJ	.	.
.	32dd 32ffJJk)	.
=62	=62	=62
*^	*^	*
8r	16ALL	4.ryy	8dd (8ff	.
.	16A	.	.	.
(4g	16A	.	4b- 4cc# 4ee	<
.	16AJJ	.	.	.
.	16ALL	.	.	.
.	16A	.	.	.
8g#)	16A	16.ffLL	8bn	[ >
.	16AJJ	.	.	.
.	.	32ddJJk)	.	]
=63	=63	=63	=63	=63
8e	16ALL	(8cc#	8a	.
.	16A	.	.	.
(4gn	16A	4cc# 4ee	4b-X	<
.	16AJJ	.	.	.
.	16ALL	.	.	.
.	16A	.	.	.
8g#)	16A	16.ffLL	8bn	[ >
.	16AJJ	.	.	.
.	.	32ddJJk)	.	]
=64	=64	=64	=64	=64
16e	16ALL	(16.cc#LL	16a	.
16r	16A	.	16r	.
.	.	32eek	.	.
(8g#L	16A	16.ff	(8bnL	sf
.	16AJJ	.	.	.
.	.	32ddJJk)	.	.
16eJk)	16ALL	(16.cc#LL	16aJk)	.
16r	16A	.	16r	.
.	.	32eek	.	.
8g#	16A	16.ff	8b	sf
.	16AJJ	.	.	.
.	.	32ddJJk)	.	.
=65	=65	=65	=65	=65
8e	8A	(4cc#	8a	p
8r	8r	.	8r	.
4r	4r	4ee	4r	.
*v	*v	*	*	*
*	*v	*v	*
=66	=66	=66
2r	4.gg	.
.	8c# (8cc#)	.
=67	=67	=67
16DD`LL	4d (4dd)	.
16D`	.	.
16AA	.	.
16D`JJ	.	.
16CC#`LL	4a 4aa)	.
16C#`	.	.
16AA`	.	.
16C#`JJ	.	.
=68	=68	=68
16DD`LL	(8g 8ggL>	.
16D`	.	.
16AA`	16.f 16.ffL	.
16D`JJ	.	.
.	32e 32eeJJk	.
16DD`LL	8d 8ddL>	.
16D`	.	.
16BBBn`	8g) 8ggJ	sf
16BBn`JJ	.	.
=69	=69	=69
!LO:TX:i:t=sempre staccato	!	!
16CC`yLL	(8f 8ffL	.
16Cn`y	.	.
16GG`y	16.e 16.eeL	.
16C`yJJ	.	.
.	32d 32ddJJk	.
16CC`yLL	8cn 8ccnL>	.
16C`y	.	.
16CC#`y	8a) 8aaJ	sf
16C#`yJJ	.	.
=70	=70	=70
16DD`yLL	(8g 8ggL>	.
16D`y	.	.
16AA`y	16.f 16.ffL	.
16D`yJJ	.	.
.	32e 32eeJJk	.
16DD`yLL	8d) 8dd	<
16D`y	.	.
16FF#`y	16.dd (16.dddLL	.
16F#`yJJ	.	.
.	32cc 32cccJJk)	.
=71	=71	=71
16GG`yLL	16cc (16cccLL	f
16G`y	16b- 16bb-	.
16BB-`y	16a 16aa	.
16B-`yJJ	16g# 16gg#JJ)	.
16AA`yLL<	(16g# 16gg#LK	.
16A`y	8a) 8aa	.
16AAA`y	.	.
16AA`yJJ	16En< 16c#Jk	.
=72	=72	=72
16DD`yLL<	4G< 4c# (>4e	p
16D`y	.	.
16AA`y	.	.
16D`yJJ	.	.
16DD`yLL<	8F< 8A< 8d)	.
16A`y	.	.
16F`y	8r	.
16D`yJJ	.	.
=73	=73	=73
16AALL	4cc# (4ee	.
16A	.	.
16A	.	.
16AJJ	.	.
16ALL	8..ee 8..ggL	.
16A	.	.
16A	.	.
16AJJ	.	.
.	32dd 32ffJkk)	.
=74	=74	=74
*^	*^	*
8r	16ALL	(8ffL	8ddL	.
.	16A	.	.	.
(4g	16A	[8cc# [8eeJ)	[8b-J	.
.	16AJJ	.	.	.
.	16ALL	(32cc#] 8ee]LLL])	8b-]L	.
.	.	32ee	.	.
.	16A	32ff	.	.
.	.	32eeJJJ	.	.
8g#)	16A	32ggLLL	8b-J	.
.	.	32ff	.	.
.	16AJJ	32ee	.	.
.	.	32ddJJJ)	.	.
*v	*v	*	*	*
=75	=75	=75	=75
(32ALLL	(32cc#LLL	8a	<
32B#	32dd#	.	.
32c#	32ee	.	.
32B#JJJ)	32dd#JJJ)	.	.
(32c#LLL	(32eeLLL	4.ryy	.
32d#	32ff#	.	.
32e	32gg	.	.
32d#JJJ)	)32ff#JJJ	.	.
(32eLLL	(32ggLLL	.	.
32f#	32aa	.	.
32g	32bb-X	.	.
32f#JJJ)	32aaJJJ)	.	.
(32gLLL	(32bb-LLL	.	>
32fn	32aa	.	.
32e	32gg	.	.
32dnJJJ)	32ffnJJJ)	.	]
=76	=76	=76	=76
*^	*	*	*
8g	16ALL	(32ffLLL	8b-X	.
.	.	32ee	.	.
.	16A	32dd#	.	.
.	.	32eeJJJ	.	.
(4g	16A	32dd#LLL	4b-	<
.	.	32ee	.	.
.	16AJJ	32dd#	.	.
.	.	32eeJJJ	.	.
.	16ALL	32dd#LLL	.	.
.	.	32ee	.	.
.	16A	32ff	.	.
.	.	32eeJJJ	.	[
8g#)	16A	32ggLLL	8b-	>
.	.	32ff	.	.
.	16AJJ	32ee	.	.
.	.	32ddnJJJ)	.	]
=77	=77	=77	=77	=77
8e	16ALL	32cc#LLL	8a	.
.	.	32ee	.	.
.	16A	32dd#	.	.
.	.	32eeJJJ	.	.
(4gn	16A	32dd#LLL	4b-X	sf
.	.	32ee	.	.
.	16AJJ	32dd#	.	.
.	.	32eeJJJ	.	.
.	16ALL	32dd#LLL	.	.
.	.	32ee	.	.
.	16A	32ff	.	.
.	.	32eeJJJ	.	.
(8g#)	16A	32ggnLLL	(8bn	.
.	.	32ff	.	.
.	16AJJ	32ee	.	.
.	.	32ddnJJJ	.	.
=78	=78	=78	=78	=78
16e)	16ALL	32cc#LLL	16a)	.
.	.	32ee	.	.
16r	16A	32ff	16rg	.
.	.	32eeJJJ	.	.
(8g#L	16A	32ggnLLL	(8bnL	sf
.	.	32ff	.	.
.	16AJJ	32ee	.	.
.	.	32ddJJJ	.	.
16eJk)	16ALL	32cc#LLL	16aJk)	.
.	.	32ee	.	.
16r	16A	32ff	16r	.
.	.	32eeJJJ	.	.
(8g#	16A	32ggLLL	(8b	sf
.	.	32ff	.	.
.	16AJJ	32ee	.	.
.	.	32ddJJJ	.	.
=79	=79	=79	=79	=79
8e)	8A	32cc#LLL	8a)	.
.	.	32dd#	.	.
.	.	32ee	.	.
.	.	32dd#JJJ	.	.
8r	8r	32eeLLL	4.ryy	<
.	.	32ff#	.	.
.	.	32gg	.	.
.	.	32ff#JJJ	.	.
4r	4r	32ggLLL	.	.
.	.	32aa	.	.
.	.	32bb-X	.	.
.	.	32aaJJJ	.	.
.	.	32cccnLLL	.	.
.	.	32bb-	.	.
.	.	32aa	.	.
.	.	32ggJJJ	.	.
*	*	*v	*v	*
=80	=80	=80	=80
4.ryy	2r	32ffnLLL	.
.	.	32ee	.
.	.	32dd	.
.	.	32cc#JJJ	.
.	.	32b-LLL	.
.	.	32a	.
.	.	32g	.
.	.	32fJJJ	.
.	.	32eLLL	.
.	.	32d	.
.	.	32c#	.
.	.	32B-<JJJ	.
32ALLL	.	8ryy	.
32G	.	.	.
32F	.	.	.
32EJJJ	.	.	.
*v	*v	*	*
=81	=81	=81
(<16DDLL<	(32D<LLL	.
.	32d	.
16D	32f	.
.	32aJJJ	.
16AA	32ddLLL	.
.	32ee	.
16DJJ)	32ff	.
.	32ggJJJ	.
(16CC#LL	32gg#LLL	.
.	32aa	.
16C#	32gg#	.
.	32aaJJJ	.
16AA	32gg#LLL	.
.	32aa	.
16C#JJ)	32bb-	.
.	32aaJJJ)	.
=82	=82	=82
(16DDLL	(32ggnLLL	<
.	32ff	.
16D	32aa	.
.	32ggJJJ	.
16AA	32ffLLL	.
.	32gg	.
16DJJ	32ee	.
.	32ffJJJ	.
16DDLL	32ddLLL	.
.	32ee	.
16D	32ff	.
.	32ff#JJJ	.
16BBBn	32ggLLL	sf
.	32ff#	.
16BBnJJ)	32aa	.
.	32ggJJJ)	.
=83	=83	=83
(16CCLL	(32ffnLLL	.
.	32ee	.
16C	32gg	.
.	32ffJJJ	.
16GG	32eeLLL	.
.	32ff	.
16CJJ	32dd	.
.	32eeJJJ	.
16CCLL	32ccLLL	.
.	32ee	.
16C	32ff	.
.	32ggJJJ	.
16CC#	32aaLLL	sf
.	32gg#	.
16C#JJ)	32bb-X	.
.	32aaJJJ)	.
=84	=84	=84
(16DDLL	(32ggnLLL	.
.	32ff	.
16D	32aa	.
.	32ggJJJ	.
16AA	32ffLLL	<
.	32gg	.
16DJJ	32ee	.
.	32ffJJJ	.
16DDLL	32ddLLL	.
.	32ddd	.
16D	32ccc#	.
.	32dddJJJ	.
16FF	32ccc#LLL	.
.	32ddd	.
16FJJ)	32eee	.
.	32dddJJJ)	.
=85	=85	=85
(16GGLL	(32cccnLLL	.
.	32bb-	.
16G	32aa	.
.	32ggJJJ	.
16BB-	32ffLLL	.
.	32ee	.
16B-JJ	32ff	.
.	32ggJJJ)	.
16AALL<	(32gg#LLL	.
.	32aa)	.
16F 16A	32dd'	.
.	32dd'JJJ	.
16AA	(32gg#LLL	.
.	32aa)	.
16E 16GJJ)	32cc#'	.
.	32cc#'JJJ	.
=86	=86	=86
(16DLL	(32ggLLL	f
.	32aa#	.
16G 16e	32cc#	.
.	32aa#JJJ)	.
16D	(32ggLLL	.
.	32aa#	.
16G 16eJJ)	32cc#	.
.	32aa#JJJ)	.
32D' 32F' 32d'	32dd'LLL	.
(32B-LLL	(32b-	.
32A	32a	.
32G#JJJ	32g#JJJ	.
32ALLL	32aLLL	.
32Gn	32gn	.
32F	32f	.
32EJJJ)	32eJJJ)	.
=87	=87	=87
*	*^	*
4D (4F	(4d	4A	p
4C# 4E)	4a)	4A	.
=88	=88	=88	=88
4.D 4.F	(8gL	4.A	.
.	16.fL	.	.
.	32eJJk	.	.
.	8dL	.	.
8FF 8D	8dJ)	8A	.
*	*v	*v	*
=89	=89	=89
(8GG' 8D'L	(8B-' 8d' 8e'L	.
8AA' 8D'	8A' 8d' 8e'	<
8BB-' 8D'	8G' 8d' 8e'	.
8AA') 8D'J	8A') 8d' 8e'J	[
=90	=90	=90
2GG;< 2D	2B-; 2d 2e	p
=91	=91	=91
(8GG#' 8D'L	(8Bn' 8d' 8e'L	.
8AA' 8D'	8A' 8d' 8e'	<
8BBn' 8D'	8G#' 8d' 8e'	.
8AA') 8D'J	8A') 8d' 8e'J	[
=92	=92	=92
2GG#;< 2D	2Bn 2d 2e	p
=93	=93	=93
16.AAA' 16.AA'LL	16.A' 16.c#' 16.e'LL	p
32AAA' 32AA'Jk	32A' 32c#' 32e'Jk	.
8AAA' 8AA'J	8A' 8c#' 8e'J	.
4r	24cc#'LL	.
.	(24bb-	.
.	24aaJJ)	.
.	24bb-'LL	.
.	24gg'	.
.	24ee'JJ	.
=94	=94	=94
16.AA' 16.D' 16.F'LL<	16.A' 16.d' 16.f'LL	<
32AA' 32D' 32F'Jk	32A' 32d' 32f'Jk	.
8AA' 8D' 8F'J	8A' 8d' 8f'J	.
4r	24ff'LL	.
.	(24ddd	.
.	24ccc#JJ)	.
.	24ddd'LL	.
.	24aa'	.
.	24ff'JJ	.
=95	=95	=95
16.AA' 16.C#' 16.E' 16.G'LL	16.B-' 16.c#' 16.e' 16.g'LL	f
32AA' 32C#' 32E' 32G'Jk	32B-' 32c#' 32e' 32g'Jk	.
8AA' 8C#' 8E' 8G'J	8B-' 8c#' 8e' 8g'J	.
4r	24gg'LL	p
.	(24eee	.
.	24ddd#JJ)	.
.	24eee'LL	.
.	24ccc#'	.
.	24bb-'JJ	.
=96	=96	=96
2r	24gg'LL	.
.	(24eee	.
.	24ddd#JJ)	.
.	24eee'LL	.
.	24ccc#'	.
.	24bb-'JJ	.
.	24gg'LL	.
.	(24ccc#	.
.	24bb#JJ)	.
.	24ccc#'LL	.
.	24bb-'	.
.	24gg'JJ	.
=97	=97	=97
2r	24ee'LL	<
.	24cc#'	.
.	24b-'JJ	.
.	24g'LL	.
.	24e'	.
.	24c#'JJ	.
*	*clefF4	*
.	16B-'LL	.
.	16G'	.
.	16E'	.
.	16C#'JJ	.
=98	=98	=98
8r	((2BB-z	.
[4GGz	.	.
(32GGLLL]	.	>
32FF	.	.
32EE-	.	.
32DDJJJ	.	.
=99	=99	=99
2CC#)	4AA)	.
.	4G)	]
*	*clefG2	*
=100	=100	=100
(4DD	8r	.
.	(16FLL	p
.	16dJJ)	.
4GGG	8r	>
.	(16dLL	.
.	16b-JJ)	.
=101	=101	=101
*^	*	*
4AAA	2AAA	8r	.
.	.	(16fLL	.
.	.	16aJJ)	.
4AA)	.	8r	.
.	.	(16ggLL	pp
.	.	16ccc#JJ)	.
*v	*v	*	*
=102	=102	=102
*	*^	*
2DD 2AA	4.ccc#S	2gg	<
.	(16.eeeLL	.	[ >
.	32dddJJk)	.	]
=103	=103	=103	=103
2DD; 2AA;<	2ddd;	2ff	pp
*	*v	*v	*
==	==	==
*-	*-	*-
!!!RDF**kern: > = above
!!!RDF**kern: < = below
!!!ENC: Craig Stuart Sapp
!!!END: 2008/02/13
!!!EED: Craig Stuart Sapp
!!!EEV: 2018/06/26
